X:308
T:B308-  Methinks the Poor Town
Q:1/4=120
L:1/4
M:6/4
K:G
(G/A/)|B3/2 A/BA2c/d/|e3/2 f/gf2d|BBcAAB|G3/2 A/FG2G|\
d3/2 c/dB2c/d/|ed3/2 c/c2g/f/|e3/2 d/e=f3/2 e/d|^c3/2 d/ed2F|\
G3/2 F/GA3/2 G/A|B3/2 A/GF2d|d3/2 c/Bc2G|G3/2 A/FG2|]

